X: 3
T: Dos Kelbl
N: aka "Donna Donna" or "Dona Dona"
M: 4/4
Q: 1/4=90
L: 1/4
K: F
|: A D E/2F/2 G | A D E/2F/2 G | A D B A/2G/2 | F G A2 |
A D E/2F/2 G | A D E/2F/2 G | A D B A/2G/2 | F E D2 |
c c c2/3 B/2 | A/2G/2 F z2 | G/2 G G/2 c B | A3 z |
c c c2/3 B | A G F G | A G F E | D3 z |
E/2E/2E/2E/2 G G | F/2G/2 A3 | G/2G/2G/2G/2 c B | A3 z |
E/2E/2E/2E/2 G G | F/2G/2 A3 | A/2E/2F/2G/2 F E | D3 z :|

